X:31
T:Bourree droite courante d'Issoudun (in G)
Z:Jack Campin, 2014
F:http://www.campin.me.uk/Music/YoupNannetteD.abc
S:p35, p1000224.jpg
M:3/8
L:1/8
Q:1/4=120
K:G
B/c/|dd/e/d/c/|BAB/c/|dde|d2\
B/c/|dd/e/d/c/|BAB/c/|dBA|G2:|
B   |BA/B/c/B/|AGA   |AGA|BG\
B   |BA/B/c/B/|AGA   |dBA|G2:|

